X:1
T:He Gave His Life for Thee
T:He Gave His Life for Thee
T:William Howard Doane
T:Frances Jane (Fanny) Crosby, 1904
T:Public Domain Courtesy of the Cyber Hymnal™
C:William Howard Doane
Z:Public Domain
Z:Courtesy of the Cyber Hymnal™
%%score ( 1 2 ) 3
L:1/8
Q:1/4=110
M:4/4
K:Eb
V:1 treble 
V:2 treble 
V:3 bass 
V:1
 [EB]4 [EA]2 [EG]2 | [EG]3 [DF] E4 | [DF]4 [EG]2 [FA]2 | [FA]3 [EG] [EG]4 | [Ge]4 [Gd]2 [Gc]2 | %5
w: 1.~O soul, from|Cal- v’ry’s cross|A voice is|call- ing thee,|The voice of|
w: 2.~They nailed Him|to the cross,|With thorns they|pierced His brow,|O come in|
w: 3.~“’Tis done, My|work is o’er”;|O hear His|bit- ter cry,|That shook the|
w: 4.~He died, but|lives a- gain;|O bless- éd|truth di- vine!|Thro’ Him e-|
 [EB]3 [DA] [EG]2 [EG]2 | [DF]4 [Ec]4 | [DB]6 ||"^Refrain" [DB]2 | [EB]6 [E=A]2 | %10
w: Him who died To|make you|free.|||
w: faith a- lone, And|trust Him|now.|He|gave His|
w: tremb- ling earth, And|rent the|sky.|||
w: ter- nal joy May|yet be|thine!|||
 [Ec]2 [EB]2 [EG]2 [Ee]2 | [Ee]6 [Ed]2 | [Ee]2 [Ec]2 [EB]2 [EG]2 | [GB]4 [FA]4 | %14
w: ||||
w: life for thee, He|gave His|life for me, And|still in|
w: ||||
w: ||||
 [EG]2 [GB]2 !fermata![Ac]2 [^Fe]2 | [GB]4 [EG]2 [DF]2 | E6 |] %17
w: |||
w: pa- tient love, He|pleads now with|thee.|
w: |||
w: |||
V:2
 x8 | x4 E4 | x8 | x8 | x8 | x8 | x8 | x6 || x2 | x8 | x8 | x8 | x8 | x8 | x8 | x8 | E6 |] %17
V:3
 [E,G,]4 [E,C]2 [E,B,]2 | [B,,B,]3 [B,,A,] [C,G,]4 | [B,,B,]4 [B,,B,]2 [D,B,]2 | %3
w: ~ ~ ~|~ ~ ~|~ ~ ~|
 [E,B,]3 [E,B,] [E,B,]4 | [C,C]4 [D,=B,]2 [E,C]2 | [G,B,]3 [F,B,] [E,B,]2 [C,=A,]2 | %6
w: ~ ~ ~|~ ~ ~|~ ~ ~ ~|
 [F,B,]4 [F,=A,]4 | [B,,B,]6 || [B,,A,]2 | [E,G,]2 [E,G,]2 [E,G,]2 [E,^F,]2 | %10
w: ~ ~|~|~|~ He gave ~|
 [E,A,]2 [E,G,]2 [E,B,]2 [G,B,]2 | [A,C]2 [A,C]2 [A,C]2 [A,=B,]2 | %12
w: ~ ~ ~ ~|~ He gave ~|
 [A,,C]2 [C,A,]2 [E,G,]2 [E,B,]2 | [B,,B,]2 [B,,B,]2 [B,,B,]2 [D,B,]2 | %14
w: ~ ~ ~ ~|~ And still in|
 [E,B,]2 [E,E]2 !fermata![A,,E]2 [=A,,C]2 | [B,,E]4 [B,,B,]2 [B,,A,]2 | [E,G,]6 |] %17
w: |||

